X: 222
U:~=!turn!
M:6/8
L:1/8
K:D
{gf}ede TfdB | AFA faf | ddd d2 :: (fg) | afa afa | bgb bgb |
afa agf | efe e2 (f/g/) | {/^g}a3 Tf3 | {gf}ede TfdB | AFA faf | ded d2 :|


